public/themes/EC/images/calendar-2.svg

<?xml version="1.0" encoding="UTF-8"?>
<svg width="25px" height="27px" viewBox="0 0 25 27" version="1.1" xmlns="http://www.w3.org/2000/svg" xmlns:xlink="http://www.w3.org/1999/xlink">
    <!-- Generator: Sketch 61 (89581) - https://sketch.com -->
    <title>Availability</title>
    <desc>Created with Sketch.</desc>
    <g id="Page-1" stroke="none" stroke-width="1" fill="none" fill-rule="evenodd">
        <g id="FavroutitesPage" transform="translate(-101.000000, -37.000000)" fill="#B9B9C0">
            <g id="LeftIconLayer" transform="translate(22.000000, 32.000000)">
                <g id="9E" transform="translate(79.000000, 5.000000)">
                    <path d="M22.9934211,23.5328049 C22.9868421,24.6589024 22.2434211,24.8459268 21.8092105,24.8564634 C21.8092105,24.8564634 4.07236842,24.8597561 3.30263158,24.8604146 C2.95394737,24.8604146 2.67763158,24.7629512 2.48026316,24.57 C2.19736842,24.2874878 2.05263158,23.76 2.05263158,23.0500976 C2.05263158,22.4040732 2.05263158,15.7587805 2.05263158,11.1095122 L23,11.1095122 C23,15.5743902 23.0065789,21.9542927 22.9934211,23.5328049 Z M2.05263158,6.5807561 C2.05263158,5.54817073 2.44736842,5.10563415 3.375,5.10036585 C3.46052632,5.09970732 4.17105263,5.09970732 5.26973684,5.09904878 L5.26973684,6.55112195 C5.26973684,7.09639024 5.71052632,7.53892683 6.25657895,7.53892683 C6.79605263,7.53892683 7.24342105,7.09639024 7.24342105,6.55112195 L7.24342105,5.09904878 C7.66447368,5.09904878 8.11184211,5.09904878 8.57894737,5.09904878 C11.4671053,5.09904878 15,5.09904878 17.6578947,5.09904878 L17.6578947,6.55112195 C17.6578947,7.09639024 18.0986842,7.53892683 18.6447368,7.53892683 C19.1907895,7.53892683 19.6315789,7.09639024 19.6315789,6.55112195 L19.6315789,5.09904878 C20.8223684,5.09904878 21.5855263,5.09904878 21.6118421,5.09970732 C22.0921053,5.11617073 22.4342105,5.23865854 22.6513158,5.47639024 C22.9605263,5.80829268 23.0065789,6.34763415 23,6.51687805 C23,6.53860976 23,6.561 23,6.58339024 C23,6.62092683 23,7.6284878 23,9.13390244 L2.05263158,9.13390244 C2.05263158,7.60346341 2.05263158,6.58207317 2.05263158,6.58207317 C2.05263158,6.58141463 2.05263158,6.5807561 2.05263158,6.5807561 Z M24.9736842,6.60578049 C24.9802632,6.33314634 24.9802632,5.10695122 24.125,4.15865854 C23.7171053,3.71085366 22.9671053,3.16821951 21.6447368,3.1247561 C21.5065789,3.1247561 20.75,3.1247561 19.6315789,3.12409756 L19.6315789,1.61209756 C19.6315789,1.06682927 19.1907895,0.624292683 18.6447368,0.624292683 C18.0986842,0.624292683 17.6578947,1.06682927 17.6578947,1.61209756 L17.6578947,3.12409756 C14.5592105,3.12409756 10.3092105,3.12343902 7.24342105,3.12343902 L7.24342105,1.61209756 C7.24342105,1.06682927 6.79605263,0.624292683 6.25657895,0.624292683 C5.71052632,0.624292683 5.26973684,1.06682927 5.26973684,1.61209756 L5.26973684,3.12409756 C4.16447368,3.12409756 3.44736842,3.12409756 3.36842105,3.1247561 C1.77631579,3.13397561 0.0723684211,4.04736585 0.0789283777,6.58339024 C0.0789283777,6.74604878 0.0855263158,22.0458293 0.0789283777,23.0454878 C0.0789283777,24.3138293 0.414473684,25.2970244 1.08552632,25.9674146 C1.65789474,26.5357317 2.42105263,26.8360244 3.29605263,26.8360244 C3.30263158,26.8360244 3.30263158,26.8360244 3.30263158,26.8360244 C4.07894737,26.8353659 21.8092105,26.8320732 21.8026316,26.8320732 C21.8092105,26.8320732 21.8092105,26.8320732 21.8092105,26.8320732 C23.0723684,26.8320732 24.9539474,25.9575366 24.9671053,23.5459756 C24.9868421,21.1087317 24.9736842,7.28604878 24.9736842,6.60578049 L24.9736842,6.60578049 Z M11.2894737,20.5239512 C11.2894737,21.1890732 11.8289474,21.7277561 12.4934211,21.7277561 C13.1578947,21.7277561 13.6973684,21.1890732 13.6973684,20.5239512 C13.6973684,19.8588293 13.1578947,19.3201463 12.4934211,19.3201463 C11.8289474,19.3201463 11.2894737,19.8588293 11.2894737,20.5239512 Z M5.13157895,20.5239512 C5.13157895,21.1890732 5.67105263,21.7277561 6.33552632,21.7277561 C7,21.7277561 7.53947368,21.1890732 7.53947368,20.5239512 C7.53947368,19.8588293 7,19.3201463 6.33552632,19.3201463 C5.67105263,19.3201463 5.13157895,19.8588293 5.13157895,20.5239512 Z M17.4473684,20.5239512 C17.4473684,21.1890732 17.9868421,21.7277561 18.6513158,21.7277561 C19.3157895,21.7277561 19.8552632,21.1890732 19.8552632,20.5239512 C19.8552632,19.8588293 19.3157895,19.3201463 18.6513158,19.3201463 C17.9868421,19.3201463 17.4473684,19.8588293 17.4473684,20.5239512 Z M11.2894737,15.0910244 C11.2894737,15.7561463 11.8289474,16.2948293 12.4934211,16.2948293 C13.1578947,16.2948293 13.6973684,15.7561463 13.6973684,15.0910244 C13.6973684,14.4259024 13.1578947,13.8872195 12.4934211,13.8872195 C11.8289474,13.8872195 11.2894737,14.4259024 11.2894737,15.0910244 Z M17.4473684,15.0910244 C17.4473684,15.7561463 17.9868421,16.2948293 18.6513158,16.2948293 C19.3157895,16.2948293 19.8552632,15.7561463 19.8552632,15.0910244 C19.8552632,14.4259024 19.3157895,13.8872195 18.6513158,13.8872195 C17.9868421,13.8872195 17.4473684,14.4259024 17.4473684,15.0910244 Z"></path>
                </g>
            </g>
        </g>
    </g>
</svg>

<svg width="25" height="27" viewBox="0 0 25 27" xmlns="http://www.w3.org/2000/svg"><title>Availability</title><path d="M22.993 23.533c-.006 1.126-.75 1.313-1.184 1.323l-18.506.004c-.35 0-.625-.097-.823-.29-.283-.283-.427-.81-.427-1.52V11.11H23c0 4.464.007 10.844-.007 12.423zM2.053 6.58c0-1.033.394-1.475 1.322-1.48l1.895-.002V6.55a.987.987 0 1 0 1.973 0V5.1h10.415v1.452a.987.987 0 1 0 1.974 0V5.1h1.98c.48.017.822.14 1.04.377.309.332.355.872.348 1.04v2.617H2.053V6.582zm22.92.025c.007-.273.007-1.499-.848-2.447-.408-.448-1.158-.99-2.48-1.034h-2.013V1.611a.987.987 0 1 0-1.974 0v1.512H7.243V1.611a.987.987 0 1 0-1.974 0v1.512h-1.9c-1.593.01-3.297.923-3.29 3.46 0 .162.007 15.462 0 16.461 0 1.269.335 2.252 1.007 2.922.572.569 1.335.869 2.21.869h.007l18.5-.004h.006c1.263 0 3.145-.874 3.158-3.286.02-2.437.007-16.26.007-16.94zM11.29 20.524a1.204 1.204 0 1 0 2.408 0 1.204 1.204 0 0 0-2.408 0zm-6.157 0a1.204 1.204 0 1 0 2.408 0 1.204 1.204 0 0 0-2.408 0zm12.315 0a1.204 1.204 0 1 0 2.408 0 1.204 1.204 0 0 0-2.408 0zm-6.158-5.433a1.204 1.204 0 1 0 2.408 0 1.204 1.204 0 0 0-2.408 0zm6.158 0a1.204 1.204 0 1 0 2.408 0 1.204 1.204 0 0 0-2.408 0z" fill="#B9B9C0" fill-rule="evenodd"/></svg>
